svg/600/outlined/humidity_percentage-fill.svg

<svg xmlns="http://www.w3.org/2000/svg" width="48" height="48" viewBox="0 -960 960 960"><path d="M580.118-250Q601-250 615.5-264.618q14.5-14.617 14.5-35.5Q630-321 615.382-335.5q-14.617-14.5-35.5-14.5Q559-350 544.5-335.382q-14.5 14.617-14.5 35.5Q530-279 544.618-264.5q14.617 14.5 35.5 14.5ZM378-256l246-246-42-42-246 246 42 42Zm2.118-194Q401-450 415.5-464.618q14.5-14.617 14.5-35.5Q430-521 415.382-535.5q-14.617-14.5-35.5-14.5Q359-550 344.5-535.382q-14.5 14.617-14.5 35.5Q330-479 344.618-464.5q14.617 14.5 35.5 14.5Zm99.824 384.131q-143.025 0-238.549-98.05Q145.869-261.968 145.869-408q0-103.341 82.891-225.388Q311.652-755.435 480-898.653q168.348 143.218 251.522 265.265Q814.696-511.341 814.696-408q0 146.032-95.864 244.081-95.865 98.05-238.89 98.05Z"/></svg>

<svg xmlns="http://www.w3.org/2000/svg" width="48" height="48" viewBox="0 -960 960 960"><path d="M580.12-250q20.88 0 35.38-14.62 14.5-14.62 14.5-35.5 0-20.88-14.62-35.38-14.62-14.5-35.5-14.5-20.88 0-35.38 14.62-14.5 14.62-14.5 35.5 0 20.88 14.62 35.38 14.62 14.5 35.5 14.5ZM378-256l246-246-42-42-246 246 42 42Zm2.12-194q20.88 0 35.38-14.62 14.5-14.62 14.5-35.5 0-20.88-14.62-35.38-14.62-14.5-35.5-14.5-20.88 0-35.38 14.62-14.5 14.62-14.5 35.5 0 20.88 14.62 35.38 14.62 14.5 35.5 14.5Zm99.82 384.13q-143.02 0-238.55-98.05-95.52-98.05-95.52-244.08 0-103.34 82.89-225.39Q311.65-755.44 480-898.65q168.35 143.21 251.52 265.26Q814.7-511.34 814.7-408q0 146.03-95.87 244.08-95.86 98.05-238.89 98.05Z"/></svg>
